X: 1
T: Mr. Charles Graham's Welcome Home
C: William Gow
R: jig
Z: 1997 by John Chambers <jc:trillian.mit.edu>
M: 6/8
L: 1/8
K: ADor
A/G/ \
| "A(m)"E>AA A2G | B>AA A2B | "G"d2e dBg | B>GG G>AG \
| "A(m)"E>AA A2G | B>AA A2B | "G"d2e dBg | "A(m)"B>AA A2 :|
e \
| "A(m)"~a3 a2e | ~a3 a2e | "G"g>bg ege | dBG G2e \
| "A(m)"~a3 a2e | ~a3 a2e | "G"g>bg ege | dBA "A(m)"A2 |]
e \
| "A(m)"~a3 a2e | ~a3 a2e | "G"g>bg ege | dBG G2A/G/ \
| "A(m)"E>AA A2G | B>AA A2B | "G"d2e dBg | "A(m)"B>AA A2 |]
% %text A major chords also work.
